resources/svg/user-search-line.svg

<svg fill="currentColor" viewBox="0 0 24 24" xmlns="http://www.w3.org/2000/svg"><path d="M12 14V16C8.68629 16 6 18.6863 6 22H4C4 17.5817 7.58172 14 12 14ZM12 13C8.685 13 6 10.315 6 7C6 3.685 8.685 1 12 1C15.315 1 18 3.685 18 7C18 10.315 15.315 13 12 13ZM12 11C14.21 11 16 9.21 16 7C16 4.79 14.21 3 12 3C9.79 3 8 4.79 8 7C8 9.21 9.79 11 12 11ZM21.4462 20.032L22.9497 21.5355L21.5355 22.9497L20.032 21.4462C19.4365 21.7981 18.7418 22 18 22C15.7909 22 14 20.2091 14 18C14 15.7909 15.7909 14 18 14C20.2091 14 22 15.7909 22 18C22 18.7418 21.7981 19.4365 21.4462 20.032ZM18 20C19.1046 20 20 19.1046 20 18C20 16.8954 19.1046 16 18 16C16.8954 16 16 16.8954 16 18C16 19.1046 16.8954 20 18 20Z"/></svg>

<svg xmlns="http://www.w3.org/2000/svg" viewBox="0 0 24 24" fill="currentColor">
    <g>
        <path fill="none" d="M0 0h24v24H0z"/>
        <path d="M12 14v2a6 6 0 0 0-6 6H4a8 8 0 0 1 8-8zm0-1c-3.315 0-6-2.685-6-6s2.685-6 6-6 6 2.685 6 6-2.685 6-6 6zm0-2c2.21 0 4-1.79 4-4s-1.79-4-4-4-4 1.79-4 4 1.79 4 4 4zm9.446 9.032l1.504 1.504-1.414 1.414-1.504-1.504a4 4 0 1 1 1.414-1.414zM18 20a2 2 0 1 0 0-4 2 2 0 0 0 0 4z"/>
    </g>
</svg>
